!!!COM: Martinů, Bohuslav (Jan)
!!!OTL: String Quartet No. 5
!!!OMV: I: Allegro ma non troppo
!!!example: 499
!!!work: Mau-55
**kern	**dynam	**kern	**dynam	**kern	**dynam	**kern	**dynam
*part4	*part4	*part3	*part3	*part2	*part2	*part1	*part1
*staff4	*	*staff3	*	*staff2	*	*staff1	*
*I"Violoncello	*	*I"Viola	*	*I"Violin II	*	*I"Violin I	*
*I'Vc.	*	*I'Vla.	*	*I'Vln. II	*	*I'Vln. I	*
*clefF4	*	*clefG2	*	*clefG2	*	*clefG2	*
*k[]	*	*k[]	*	*k[]	*	*k[]	*
*C:	*	*C:	*	*C:	*	*C:	*
*M4/4	*	*M4/4	*	*M4/4	*	*M4/4	*
*MM121	*	*MM121	*	*MM121	*	*MM121	*
=129	=129	=129	=129	=129	=129	=129	=129
16BB'LL 16Fn	.	[4ee	.	8r	.	(4gg	.
16BB' 16F	.	.	.	.	.	.	.
16BB' 16F	.	.	.	16c'LL 16a	.	.	.
16BB'JJ 16F	.	.	.	16c'JJ 16a	.	.	.
4r	.	8eeL]	.	16c'LL 16a	.	4.ff)	.
.	.	.	.	16c'JJ 16a	.	.	.
.	.	(8gg-XJ	.	8r	.	.	.
16BB'LL 16F	.	8ee-XL	.	8r	.	.	.
16BB' 16F	.	.	.	.	.	.	.
16BB' 16F	.	8an)	.	16c'LL 16a	.	(8aa-X	.
16BB'JJ 16F	.	.	.	16c'JJ 16a	.	.	.
4r	.	(8ff	.	16c'LL 16a	.	4gg-X	.
.	.	.	.	16c'JJ 16a	.	.	.
.	.	8dd-XJ	.	8r	.	.	.
=130	=130	=130	=130	=130	=130	=130	=130
16BB'LL 16Fn	.	8cc-XL)	.	8r	.	4.ff)	.
16BB' 16F	.	.	.	.	.	.	.
16BB' 16F	.	(8gg-X	.	16c'LL 16a	.	.	.
16BB'JJ 16F	.	.	.	16c'JJ 16a	.	.	.
4r	<	8ee-X	.	16c'LL 16a	.	.	.
.	.	.	.	16c'JJ 16a	.	.	.
.	.	8anJ	.	8r	.	(8aa-X	<
16BB'LL 16F	.	4ff)	.	8r	.	4gg-X	.
16BB' 16F	.	.	.	.	.	.	.
16BB' 16F	.	.	.	16c'LL 16a	<	.	.
16BB'JJ 16F	.	.	.	16c'JJ 16a	.	.	.
4r	[	(8dd-XL	.	16c'LL 16a	.	8ee-XL)	.
.	.	.	.	16c'JJ 16a	.	.	.
.	.	[8b-XJ	.	8r	[	(8bb-XJ	[
=131	=131	=131	=131	=131	=131	=131	=131
16AA#X'LL 16F#X	.	8b-L])	.	8r	.	4.ff#X)	.
16AA#' 16F#	.	.	.	.	.	.	.
16AA#' 16F#	.	(8ggn	.	16c#X'LL 16a	.	.	.
16AA#'JJ 16F#	.	.	.	16c#'JJ 16a	.	.	.
4r	.	8een	.	16c#'LL 16a	.	.	.
.	.	.	.	16c#'JJ 16a	.	.	.
.	.	8b-XJ)	.	8r	.	(8aan	.
16AA#'LL 16F#	<	(8ff#XL	.	8r	.	4ggn)	<
16AA#' 16F#	.	.	.	.	.	.	.
16AA#' 16F#	.	8dd#X)	.	16c#'LL 16a	<	.	.
16AA#'JJ 16F#	.	.	.	16c#'JJ 16a	.	.	.
4r	[	(8gg	.	16c#'LL 16a	.	(8aaL	.
.	.	.	.	16c#'JJ 16a	.	.	.
.	.	8eeJ	.	8r	[	[8ff#XJ	[[
=132	=132	=132	=132	=132	=132	=132	=132
16GG'LL 16G	f	8b-XL)	.	8r	.	8ff#L])	f
16GG' 16G	.	.	.	.	.	.	.
16GG' 16G	.	(8cc#X	f	16c#X'LL 16a#X	f	(8bb-XJ	.
16GG'JJ 16G	.	.	.	16c#'JJ 16a#	.	.	.
8r	.	8a	.	16c#'LL 16a#	.	[4gg)	.
.	.	.	.	16c#' 16a#	.	.	.
(8GG	f	8gJ)	.	16c#' 16a#	.	.	.
.	.	.	.	16c#'JJ 16a#	.	.	.
8E-XL	.	[2b-	.	8r	.	8ggL]	.
8B-X	.	.	.	16c#'LL 16a#	.	(8gg	.
.	.	.	.	16c#'JJ 16a#	.	.	.
8An)	<	.	.	16c#'LL 16a#	.	8ff#X	.
.	.	.	.	16c#' 16a#	.	.	.
(8GJ	.	.	.	16c#' 16a#	.	8dJ)	.
.	.	.	.	16c#'JJ 16a#	.	.	.
*clefG2	*	*	*	*	*	*	*
=133	=133	=133	=133	=133	=133	=133	=133
8gL	.	8b-L]	.	8r	.	(8gL	.
8aJ	.	(8ee-X	.	16c#X'LL 16a#X	.	8f#X	.
.	.	.	.	16c#'JJ 16a#	.	.	.
4b-X)	[	8dd	.	16c#'LL 16a#	.	8G)	.
.	.	.	.	16c#' 16a#	.	.	.
.	.	8gJ)	.	16c#' 16a#	.	(8b-XJ	.
.	.	.	.	16c#'JJ 16a#	.	.	.
*clefF4	*	*	*	*	*	*	*
(8GL	.	(8ccnL	.	8r	.	8f#L	.
8AJ	.	[8b-X	.	16c#'LL 16a#	.	8e)	.
.	.	.	.	16c#'JJ 16a#	.	.	.
4B-X)	.	8b-])	.	16c#'LL 16a#	.	(8g	.
.	.	.	.	16c#' 16a#	.	.	.
.	.	(8ee-J	.	16c#' 16a#	.	8f#J	.
.	.	.	.	16c#'JJ 16a#	.	.	.
=134	=134	=134	=134	=134	=134	=134	=134
(8e-XL	<	8ddL)	.	8r	.	8GL)	.
8fJ	.	(8g	.	16c#X'LL 16a#X	.	(8cc	.
.	.	.	.	16c#'JJ 16a#	.	.	.
4f#X	.	8cc	.	16c#'LL 16a#	.	8b-X	.
.	.	.	.	16c#' 16a#	.	.	.
.	.	8b-XJ)	.	16c#' 16a#	.	8aJ	.
.	.	.	.	16c#'JJ 16a#	.	.	.
4g)	[	(4ee-X	.	8r	.	8c#XL)	.
.	.	.	.	16c#'LL 16a#	<	(8een	<
.	.	.	.	16c#'JJ 16a#	.	.	.
(8B-XL	.	8dd-XL)	.	16c#'LL 16a#	.	8cc	.
.	.	.	.	16c#' 16a#	.	.	.
8cJ	.	[8gg-XJ	.	16c#' 16a#	.	8b-XJ)	[
.	.	.	.	16c#'JJ 16a#	[	.	.
=135	=135	=135	=135	=135	=135	=135	=135
4d-X	.	8ff#XL]	.	8r	.	(8cc#XL	.
.	.	8eenJ	.	16c#X'LL 16a#X	.	8a	.
.	.	.	.	16c#'JJ 16a#	.	.	.
4e-X	.	[4gg^	.	16c#'LL 16a#	.	8e-X)	.
.	.	.	.	16c#' 16a#	.	.	.
.	.	.	.	16c#' 16a#	.	[8een'^J	f
.	.	.	.	16c#'JJ 16a#	.	.	.
*clefG2	*	*	*	*	*	*	*
8fnL)	f	8ggL]	f	8r	.	12eeL]	.
.	.	.	.	.	.	(12dd#X	.
(8e-X	.	(8ff#X	.	16B-X'LL 16g	f	.	.
.	.	.	.	.	.	12cc#XJ	.
.	.	.	.	16B-'JJ 16g	.	.	.
8g-X	.	8gg	.	16B-'LL 16g	.	12ddnL	.
.	.	.	.	16B-' 16g	.	.	.
.	.	.	.	.	.	12ee	.
8d-XJ)	.	8eeJ)	.	16B-' 16g	.	.	.
.	.	.	.	.	.	12cc#J)	.
.	.	.	.	16B-'JJ 16g	.	.	.
=136	=136	=136	=136	=136	=136	=136	=136
(8f-XL	.	(8ggL	.	8r	.	(16dd#XLL	.
.	.	.	.	.	.	16ee	.
8e-X	.	8ff#X)	.	16B-X'LL 16an	.	16cc#X	.
.	.	.	.	16B-'JJ 16a	.	16dd#JJ)	.
8g-X	.	(8ff#	.	16B-'LL 16a	.	(12eeL	.
.	.	.	.	16B-' 16a	.	.	.
.	.	.	.	.	.	12dd#	.
8d-XJ)	.	8eeJ)	.	16B-' 16a	.	.	.
.	.	.	.	.	.	12cc#J)	.
.	.	.	.	16B-'JJ 16a	.	.	.
(8f-L	.	[4gg^	.	8r	.	(12dd#L	.
.	.	.	.	.	.	12ee	.
8e-J	.	.	.	16B-'LL 16a	.	.	.
.	.	.	.	.	.	12cc#J)	.
.	.	.	.	16B-'JJ 16a	.	.	.
[4g-)	.	8ggL]	.	16B-'LL 16a	.	(16dd#LL	.
.	.	.	.	16B-' 16a	.	16ee	.
.	.	[8ff#XJ	.	16B-' 16a	.	16cc#	.
.	.	.	.	16B-'JJ 16a	.	16dd#JJ)	.
=	=	=	=	=	=	=	=
*-	*-	*-	*-	*-	*-	*-	*-
!!!system-decoration: [(s1,s2,s3,s4)]
!!!CDT: 1890/12/08-1959/08/28
!!!CBL: Polička, Bohemia
!!!CDL: Liestal, Switzerland
!!!CNT: Czech
!!!AGN: Instrumental; Chamber
!!!MCN:
!!!MDT: 1938/08/08
!!!MGN: Pro-Arte Quartett
!!!MLC: Los Angeles, California, United States of America
!!!MPD: 1938
!!!MPN:
!!!ODT: 1938
!!!PDT: 1959
!!!excerpt-start-measure: 129
!!!excerpt-end-measure: 136
!!!excerpt-start-time: 4:58
!!!excerpt-end-time: 5:17
!!!EEV: 2020/01/27
!!!ONB: Converted from MusicXML on 2020/01/27
